X: 9831
T: Denis Whelan's
R: jig
M: 6/8
K: Dmajor
|:c|dAF GFE|DF/G/A dfa|gfg efd|ceA GFE|
DF/G/A dAF|EGB efg|f/g/a f edc|dfe d2:|
|:=c|BGB AFA|GB/=c/d g3|f/g/ag fd=c|B3 AFD|
B2 B AGF|GBd g2 z|f/g/af ed^c|dfe d2:|

